icons/fill-ele-other-paper-plane-s-promotion.svg

<svg xmlns="http://www.w3.org/2000/svg" width="32px" height="32px" viewBox="0 0 32 32" version="1.1">
    <title>fill-ele-other-paper-plane-s-promotion</title>
    <g id="fill-ele-other-paper-plane-s-promotion" stroke-width="1" fill-rule="evenodd">
        <path d="M10,19.5 L16,23 L10.8535534,28.1464466 C10.6582912,28.3417088 10.3417088,28.3417088 10.1464466,28.1464466 C10.0526784,28.0526784 10,27.9255015 10,27.7928932 L10,19.5 Z M27.1183516,3.40123996 L27.2136346,3.4118909 C27.593998,3.48104789 27.8462807,3.84545619 27.7771237,4.22581963 L24.1733205,24.0467375 C24.1599564,24.1202398 24.1349122,24.1911289 24.0991384,24.2567142 C23.9140145,24.596108 23.4888089,24.7211685 23.149415,24.5360446 L10.060505,17.3965996 L26,5 L7.58650504,16.0475996 L3.32849719,13.7246348 C3.21187724,13.6610239 3.11638566,13.5659047 3.05233421,13.4510504 L3.01035176,13.3613933 C2.8715707,13.0005625 3.05157755,12.5955471 3.41240833,12.456766 L26.8371294,3.44725791 C26.8970695,3.42420402 26.9596034,3.40961819 27.0229485,3.40366787 L27.1183516,3.40123996 Z" id="&#24418;&#29366;" />
    </g>
</svg>

<svg xmlns="http://www.w3.org/2000/svg" viewBox="0 0 32 32"><path fill="currentColor" d="m10 19.5 6 3.5-5.146 5.146a.5.5 0 0 1-.854-.353zM27.118 3.401l.096.01a.7.7 0 0 1 .563.815l-3.604 19.82a.7.7 0 0 1-1.024.49l-13.088-7.14L26 5 7.587 16.048l-4.259-2.323a.7.7 0 0 1-.276-.274l-.042-.09a.7.7 0 0 1 .402-.904l23.425-9.01a.7.7 0 0 1 .186-.043z"/></svg>
